data/icons/scalable/actions/configuration-symbolic.svg

<?xml version="1.0" encoding="UTF-8"?>
<svg height="16px" viewBox="0 0 16 16" width="16px" xmlns="http://www.w3.org/2000/svg">
    <g fill="#222222">
        <path d="m 1 4.5 c 0 1.921875 1.578125 3.5 3.5 3.5 s 3.5 -1.578125 3.5 -3.5 s -1.578125 -3.5 -3.5 -3.5 s -3.5 1.578125 -3.5 3.5 z m 2 0 c 0 -0.839844 0.660156 -1.5 1.5 -1.5 s 1.5 0.660156 1.5 1.5 s -0.660156 1.5 -1.5 1.5 s -1.5 -0.660156 -1.5 -1.5 z m 0 0"/>
        <path d="m 8 11.5 c 0 1.921875 1.578125 3.5 3.5 3.5 s 3.5 -1.578125 3.5 -3.5 c 0 -1.386719 -0.820312 -2.59375 -2 -3.15625 v -5.84375 c 0 -0.832031 -0.667969 -1.5 -1.5 -1.5 s -1.5 0.667969 -1.5 1.5 v 5.84375 c -1.179688 0.5625 -2 1.769531 -2 3.15625 z m 2 0 c 0 -0.839844 0.660156 -1.5 1.5 -1.5 s 1.5 0.660156 1.5 1.5 s -0.660156 1.5 -1.5 1.5 s -1.5 -0.660156 -1.5 -1.5 z m 0 0"/>
        <path d="m 3 13.5 c 0 0.832031 0.667969 1.5 1.5 1.5 s 1.5 -0.667969 1.5 -1.5 v -4.765625 c -0.480469 0.171875 -0.988281 0.261719 -1.5 0.265625 c -0.511719 0 -1.019531 -0.09375 -1.5 -0.265625 z m 0 0" fill-opacity="0.34902"/>
    </g>
</svg>

<svg xmlns="http://www.w3.org/2000/svg" width="16" height="16" viewBox="0 0 16 16"><g fill="#222"><path d="M1 4.5C1 6.422 2.578 8 4.5 8S8 6.422 8 4.5 6.422 1 4.5 1 1 2.578 1 4.5m2 0C3 3.66 3.66 3 4.5 3S6 3.66 6 4.5 5.34 6 4.5 6 3 5.34 3 4.5M8 11.5c0 1.922 1.578 3.5 3.5 3.5s3.5-1.578 3.5-3.5c0-1.387-.82-2.594-2-3.156V2.5c0-.832-.668-1.5-1.5-1.5S10 1.668 10 2.5v5.844c-1.18.562-2 1.77-2 3.156m2 0c0-.84.66-1.5 1.5-1.5s1.5.66 1.5 1.5-.66 1.5-1.5 1.5-1.5-.66-1.5-1.5m0 0"/><path fill-opacity=".349" d="M3 13.5c0 .832.668 1.5 1.5 1.5S6 14.332 6 13.5V8.734A4.6 4.6 0 0 1 4.5 9 4.5 4.5 0 0 1 3 8.734zm0 0"/></g></svg>
